shader_type particles;

#define RANDOM_RGB
#define RANDOM_ALPHA
#define RANDOM_COLOUR
#define EMISSION_SHAPE_RING
//#define APPLY_TURBULENCE
#define APPLY_NOISE
//#define APPLY_TARGET_FOLLOW
#define APPLY_PATH_FOLLOW

#include "res://shaders/particle_simulation.gdshaderinc"